!!!COM: Music21
!!!OTL: Ai, chis, pum
!!!OMV: pezas_pasodobles_ai-chis-pum_ai-chis-pum-partitura.musicxml
**kern
*I"Bagpipes
*I'Bag
*clefG^2
*k[]
*M2/4
=1
!LO:TX:a:t=Allegretto
*MM120
!LO:TX:a:t=[quarter]=120
4ccc
4bb
=||
8aa
8r
8eeL
8ggJ
=
8ggL
8ffJ
8ffL
8aaJ
=
4aa
4gg
=
4ccc
4bb
=
8aa
8r
8eeL
8ggJ
=
8ggL
8ffJ
8ddL
8ffJ
=
4ff
4ee
=
4ccc
4bb
=||
8aa
8r
8eeL
8ggJ
=
8ggL
8ffJ
8ffL
8aaJ
!!linebreak:original
=
4aa
4gg
=
4ccc
4bb
=
8aa
8r
8eeL
8ggJ
=
8ggL
8ffJ
8ddL
8ffJ
=
4ff
4ee
=
8eeL
8ffJ
8ggL
8aaJ
=||
8aaL
8ggJ
8eeL
8ggJ
!!linebreak:original
=
8ggL
8ffJ
8ddL
8aaJ
=
4aa
4gg
=
8eeL
8ffJ
8ggL
8aaJ
=
8aaL
8ggJ
8eeL
8ggJ
=
8ggL
8ffJ
8ddL
8ffJ
=
2ee
=
8eeL
8ffJ
8ggL
8aaJ
=||
8aaL
8ggJ
8eeL
8ggJ
!!linebreak:original
=
8ggL
8ffJ
8ddL
8aaJ
=
4aa
4gg
=
8eeL
8ffJ
8ggL
8aaJ
=
8aaL
8ggJ
8eeL
8ggJ
=
8ggL
8ffJ
8ddL
8ffJ
=||
2ee
=
4ccc
4bb
=||
8ee
8r
4r
==
*-
